X:224
T:Millenium Eve
C:Zoë Conway
S:Zoë Conway
Z:robin.beech@mcgill.ca
R:reel
M:4/4
L:1/8
K:Gmix
G2DG BddB | c2AG FGEF | DGG/G/G G2Bd | cBAG ^FGA/B/c |
d2BG DGBG | ^FGAB c3A | B2GB c2Ac |1 dg^fd cA^FA :|2 dg^fd cABd |:
g2dg Bdgb | a2fc ABcA | BGBc d3e | fdcd ^fgaf |
g2dg Bdgb | a2fc ABcA | B2GB c2Ac |1 dg^fd cABd :|2 dg^fd cA^FA |]
